X:12433
T:Opera Hat. JC.057
T:Russian,The,aka JC.057
M:2/4
L:1/16
Q:90
S:John Clare,Poet,Helpston. (1793-1864)
R:Misc.
O:England
A:Northamptonshire
N:
Z:P Headford
K:D
(Ad)|f2(Ad) f2(Af)|gafg e2(Ac)|e2(Ac) e2(de)|(fg)(ef) d2:|!
|:(ag)|f2(fe) d2d'c'|(b^f)(ba) (ba)(gf)|(ef)(de) (ce)ac|{e}(dc)(de) d2:|
